Newaita-dark/apps/22/com.github.bcedu.shutdownscheduler.svg

<svg height="22pt" viewBox="0 0 22 22" width="22pt" xmlns="http://www.w3.org/2000/svg" xmlns:xlink="http://www.w3.org/1999/xlink"><linearGradient id="a"><stop offset="0" stop-opacity=".313725"/><stop offset=".222222" stop-opacity=".27451"/><stop offset="1" stop-opacity="0"/></linearGradient><radialGradient id="b" cx="450.90894" cy="189.57936" gradientTransform="matrix(.00000012 -.0537161 -.0966889 -.00000007 30.609667 43.721791)" gradientUnits="userSpaceOnUse" r="21.166656" xlink:href="#a"/><radialGradient id="c" cx="450.90894" cy="189.57936" gradientTransform="matrix(-.00000012 .0537161 .0966889 .00000007 -8.779458 -5.175143)" gradientUnits="userSpaceOnUse" r="21.166656" xlink:href="#a"/><radialGradient id="d" cx="450.90894" cy="189.57936" gradientTransform="matrix(-.00000012 -.0537161 .0966889 -.00000007 -8.779458 43.721791)" gradientUnits="userSpaceOnUse" r="21.166656" xlink:href="#a"/><radialGradient id="e" cx="450.90894" cy="189.57936" gradientTransform="matrix(.00000012 .0537161 -.0966889 .00000007 30.609666 -5.175144)" gradientUnits="userSpaceOnUse" r="21.166656" xlink:href="#a"/><linearGradient id="f" gradientTransform="matrix(.00918504 0 0 .0429729 8.569953 9.239164)" gradientUnits="userSpaceOnUse" x1="255.32306" x2="255.32304" y1="233.5" y2="254.66666"><stop offset="0" stop-opacity=".27451"/><stop offset="1" stop-opacity="0"/></linearGradient><linearGradient id="g" gradientUnits="userSpaceOnUse" x1="254" x2="254" y1="-168.66667" y2="233.5"><stop offset="0" stop-color="#616161"/><stop offset="1" stop-color="#424242"/></linearGradient><linearGradient id="h" gradientUnits="userSpaceOnUse" x1="10.915104" x2="10.915104" y1="19.27332442218" y2="1.99107562629"><stop offset="0" stop-color="#bdbdbd"/><stop offset="1" stop-color="#e0e0e0"/></linearGradient><path d="m12.507812 19.273438h1.816407v-.910157h-1.816407zm0 0" fill="url(#b)"/><path d="m9.324219 19.273438h-1.820313v.910156h1.820313zm0 0" fill="url(#c)"/><path d="m9.324219 19.273438h-1.820313v-.910157h1.820313zm0 0" fill="url(#d)"/><path d="m12.507812 19.273438h1.816407v.910156h-1.816407zm0 0" fill="url(#e)"/><path d="m9.324219 19.046875h3.183593v1.136719h-3.183593zm0 0" fill="url(#f)"/><path d="m253.975747-168.640791c111.080301 0 201.071707 89.991407 201.071707 201.071708s-89.991406 201.071708-201.071707 201.071708c-110.989402 0-201.071708-89.991407-201.071708-201.071708s90.082306-201.071708 201.071708-201.071708zm0 0" fill="url(#g)" stroke="#333" stroke-linecap="round" stroke-width="3" transform="matrix(.0429729 0 0 .0429729 0 9.239163)"/><path d="m10.914062 19.273438c-4.785156 0-8.640624-3.855469-8.640624-8.640626 0-.027343 0-.058593 0-.085937.046874 4.75 3.882812 8.558594 8.640624 8.558594 4.761719 0 8.597657-3.808594 8.640626-8.558594v.085937c0 4.785157-3.851563 8.640626-8.640626 8.640626zm0 0" fill-opacity=".196078"/><path d="m10.914062 1.992188c-4.785156 0-8.640624 3.851562-8.640624 8.640624v.085938c.046874-4.75 3.882812-8.558594 8.640624-8.558594 4.761719 0 8.597657 3.808594 8.640626 8.558594 0-.03125 0-.058594 0-.085938 0-4.789062-3.851563-8.640624-8.640626-8.640624zm0 0" fill="#fff" fill-opacity=".392157"/><path d="m10.914062 1.925781c-4.820312 0-8.703124 3.882813-8.703124 8.707031 0 4.820313 3.882812 8.703126 8.703124 8.703126 4.824219 0 8.707032-3.882813 8.707032-8.703126 0-4.824218-3.882813-8.707031-8.707032-8.707031zm0 .128907c4.753907 0 8.578126 3.824218 8.578126 8.578124 0 4.75-3.824219 8.574219-8.578126 8.574219-4.75 0-8.574218-3.824219-8.574218-8.574219 0-4.753906 3.824218-8.578124 8.574218-8.578124zm0 0" fill="#212121"/><path d="m10.910156 5.625c-.253906.003906-.453125.207031-.449218.460938v4.546874c0 .25.203124.453126.453124.453126h3.183594c.164063.003906.316406-.082032.398438-.226563.085937-.140625.085937-.316406 0-.457031-.082032-.140625-.234375-.226563-.398438-.222656h-2.726562v-4.09375c0-.125-.046875-.242188-.136719-.328126-.085937-.089843-.203125-.136718-.324219-.132812zm2.609375.285156c-.203125.007813-.375.144532-.425781.339844s.035156.402344.207031.503906c1.300781.800782 2.164063 2.230469 2.164063 3.878906 0 2.527344-2.023438 4.546876-4.550782 4.546876-2.527343 0-4.546874-2.019532-4.546874-4.546876 0-1.648437.863281-3.078124 2.160156-3.878906.175781-.105468.261718-.3125.207031-.507812-.054687-.199219-.230469-.335938-.4375-.335938-.085937 0-.171875.023438-.242187.070313-1.5625.960937-2.597657 2.683593-2.597657 4.652343 0 3.015626 2.441407 5.457032 5.457031 5.457032 3.015626 0 5.457032-2.441406 5.457032-5.457032 0-1.96875-1.035156-3.691406-2.59375-4.652343-.078125-.046875-.167969-.074219-.257813-.070313zm0 0" fill="url(#h)"/><path d="m10.910156 5.625c-.253906.003906-.453125.207031-.449218.460938v.285156c-.003907-.25.195312-.457032.449218-.460938.121094 0 .238282.046875.324219.132813.089844.089843.136719.207031.136719.328125v-.285156c0-.125-.046875-.242188-.136719-.328126-.085937-.089843-.203125-.136718-.324219-.132812zm2.609375.285156c-.144531.003906-.277343.078125-.359375.195313-.082031.117187-.101562.265625-.058594.402343.0625-.179687.226563-.304687.417969-.308593.089844-.003907.179688.019531.257813.070312 1.523437.933594 2.542968 2.601563 2.59375 4.507813 0-.046875 0-.097656 0-.144532 0-1.96875-1.035156-3.691406-2.59375-4.652343-.078125-.046875-.167969-.074219-.257813-.070313zm-5.222656 0c-.085937 0-.171875.023438-.242187.070313-1.5625.960937-2.597657 2.683593-2.597657 4.652343 0 .046876 0 .097657.003907.144532.046874-1.90625 1.070312-3.574219 2.59375-4.507813.070312-.046875.15625-.070312.242187-.070312.195313 0 .367187.125.429687.308593.046876-.136718.023438-.289062-.0625-.40625-.082031-.121093-.21875-.191406-.367187-.191406zm3.074219 4.269532v.285156h2.726562c.199219-.003906.375.125.4375.3125.046875-.140625.023438-.292969-.0625-.414063-.089844-.117187-.226562-.1875-.375-.183593zm-5.003906.597656v.140625c0 2.53125 2.019531 4.550781 4.546874 4.550781 2.527344 0 4.550782-2.019531 4.550782-4.550781 0-.046875 0-.09375-.003906-.140625-.074219 2.457031-2.066407 4.402344-4.546876 4.402344-2.480468 0-4.46875-1.945313-4.546874-4.402344zm0 0" fill="#fff"/><path d="m13.140625 6.589844c-.125.214844-.054687.492187.160156.617187 1.238281.761719 2.082031 2.097657 2.15625 3.652344.003907-.074219.007813-.152344.007813-.226563 0-1.648437-.863282-3.082031-2.164063-3.878906-.066406-.039062-.121093-.097656-.160156-.164062zm-4.453125 0c-.039062.070312-.09375.125-.160156.164062-1.296875.796875-2.160156 2.230469-2.160156 3.878906 0 .074219 0 .152344.003906.226563.078125-1.554687.917968-2.890625 2.15625-3.652344.214844-.125.285156-.402343.160156-.617187zm1.773438 4.042968v.453126c0 .25.203124.453124.453124.453124h3.183594c.164063.003907.316406-.082031.398438-.222656.082031-.140625.085937-.316406.003906-.457031-.082031.140625-.238281.226563-.402344.226563h-3.183594c-.25 0-.453124-.203126-.453124-.453126zm-4.996094.226563c-.003906.074219-.007813.152344-.007813.226563 0 3.015624 2.441407 5.457031 5.457031 5.457031 3.015626 0 5.457032-2.441407 5.457032-5.457031 0-.074219 0-.152344-.003906-.226563-.121094 2.910156-2.511719 5.230469-5.453126 5.230469-2.9375 0-5.332031-2.320313-5.449218-5.230469zm0 0" fill-opacity=".235294"/><path d="m959.564785 494.727279c-22.33144.343561-39.853031 18.208712-39.50947 40.540152v399.90455c0 21.98788 17.865151 39.853031 39.85303 39.853031h280.001898c14.429546.343561 27.828409-7.214773 35.043182-19.926515 7.558334-12.368182 7.558334-27.82841 0-40.196592-7.214773-12.368182-20.613636-19.926515-35.043182-19.582954h-239.805306v-360.05152c0-10.99394-4.122727-21.300758-12.024622-28.859091-7.558333-7.901894-17.865151-12.024622-28.51553-11.681061zm229.498488 25.079925c-17.865152.687121-32.981819 12.711742-37.448107 29.889773-4.466288 17.17803 3.092046 35.386742 18.208712 44.319318 114.405684 70.429925 190.332579 196.173109 190.332579 341.155686 0 222.283715-177.964397 399.904551-400.248112 399.904551-222.283714 0-399.90455-177.620836-399.90455-399.904551 0-144.982577 75.926895-270.725761 189.989017-341.155686 15.460228-9.276136 23.018561-27.484848 18.208713-44.662879-4.809849-17.521591-20.270076-29.546212-38.478789-29.546212-7.558333 0-15.116666 2.061363-21.300757 6.184091-137.424245 84.51591-228.467806 236.026139-228.467806 409.180686 0 265.228792 214.725381 479.954173 479.954172 479.954173 265.228792 0 479.954173-214.725381 479.954173-479.954173 0-173.154547-91.043562-324.664776-228.124245-409.180686-6.871212-4.122728-14.773106-6.527652-22.675-6.184091zm0 0" fill="none" stroke="#212121" stroke-linecap="round" stroke-linejoin="round" stroke-width="11.338583" transform="scale(.0113699)"/></svg>

<?xml version="1.0" encoding="UTF-8"?>
<svg xmlns="http://www.w3.org/2000/svg" xmlns:xlink="http://www.w3.org/1999/xlink" width="22pt" height="22pt" viewBox="0 0 22 22" version="1.1">
<defs>
<radialGradient id="radial0" gradientUnits="userSpaceOnUse" cx="450.90894" cy="189.57936" fx="450.90894" fy="189.57936" r="21.166656" gradientTransform="matrix(0.000000119742,-0.0537161,-0.0966889,-0.0000000698078,30.609667,43.721791)">
<stop offset="0" style="stop-color:rgb(0%,0%,0%);stop-opacity:0.313725;"/>
<stop offset="0.222222" style="stop-color:rgb(0%,0%,0%);stop-opacity:0.27451;"/>
<stop offset="1" style="stop-color:rgb(0%,0%,0%);stop-opacity:0;"/>
</radialGradient>
<radialGradient id="radial1" gradientUnits="userSpaceOnUse" cx="450.90894" cy="189.57936" fx="450.90894" fy="189.57936" r="21.166656" gradientTransform="matrix(-0.000000119742,0.0537161,0.0966889,0.0000000698078,-8.779458,-5.175143)">
<stop offset="0" style="stop-color:rgb(0%,0%,0%);stop-opacity:0.313725;"/>
<stop offset="0.222222" style="stop-color:rgb(0%,0%,0%);stop-opacity:0.27451;"/>
<stop offset="1" style="stop-color:rgb(0%,0%,0%);stop-opacity:0;"/>
</radialGradient>
<radialGradient id="radial2" gradientUnits="userSpaceOnUse" cx="450.90894" cy="189.57936" fx="450.90894" fy="189.57936" r="21.166656" gradientTransform="matrix(-0.000000119742,-0.0537161,0.0966889,-0.0000000698078,-8.779458,43.721791)">
<stop offset="0" style="stop-color:rgb(0%,0%,0%);stop-opacity:0.313725;"/>
<stop offset="0.222222" style="stop-color:rgb(0%,0%,0%);stop-opacity:0.27451;"/>
<stop offset="1" style="stop-color:rgb(0%,0%,0%);stop-opacity:0;"/>
</radialGradient>
<radialGradient id="radial3" gradientUnits="userSpaceOnUse" cx="450.90894" cy="189.57936" fx="450.90894" fy="189.57936" r="21.166656" gradientTransform="matrix(0.000000119742,0.0537161,-0.0966889,0.0000000698078,30.609666,-5.175144)">
<stop offset="0" style="stop-color:rgb(0%,0%,0%);stop-opacity:0.313725;"/>
<stop offset="0.222222" style="stop-color:rgb(0%,0%,0%);stop-opacity:0.27451;"/>
<stop offset="1" style="stop-color:rgb(0%,0%,0%);stop-opacity:0;"/>
</radialGradient>
<linearGradient id="linear0" gradientUnits="userSpaceOnUse" x1="255.32306" y1="233.5" x2="255.32304" y2="254.66666" gradientTransform="matrix(0.00918504,0,0,0.0429729,8.569953,9.239164)">
<stop offset="0" style="stop-color:rgb(0%,0%,0%);stop-opacity:0.27451;"/>
<stop offset="1" style="stop-color:rgb(0%,0%,0%);stop-opacity:0;"/>
</linearGradient>
<linearGradient id="linear1" gradientUnits="userSpaceOnUse" x1="254" y1="-168.66667" x2="254" y2="233.5" >
<stop offset="0" style="stop-color:rgb(38.039216%,38.039216%,38.039216%);stop-opacity:1;"/>
<stop offset="1" style="stop-color:rgb(25.882353%,25.882353%,25.882353%);stop-opacity:1;"/>
</linearGradient>
<linearGradient id="linear2" gradientUnits="userSpaceOnUse" x1="960" y1="1695.1182" x2="960" y2="175.11813" gradientTransform="matrix(0.0113699,0,0,0.0113699,0,0)">
<stop offset="0" style="stop-color:rgb(74.117647%,74.117647%,74.117647%);stop-opacity:1;"/>
<stop offset="1" style="stop-color:rgb(87.843137%,87.843137%,87.843137%);stop-opacity:1;"/>
</linearGradient>
</defs>
<g id="surface1">
<path style=" stroke:none;fill-rule:nonzero;fill:url(#radial0);" d="M 12.507812 19.273438 L 14.324219 19.273438 L 14.324219 18.363281 L 12.507812 18.363281 Z M 12.507812 19.273438 "/>
<path style=" stroke:none;fill-rule:nonzero;fill:url(#radial1);" d="M 9.324219 19.273438 L 7.503906 19.273438 L 7.503906 20.183594 L 9.324219 20.183594 Z M 9.324219 19.273438 "/>
<path style=" stroke:none;fill-rule:nonzero;fill:url(#radial2);" d="M 9.324219 19.273438 L 7.503906 19.273438 L 7.503906 18.363281 L 9.324219 18.363281 Z M 9.324219 19.273438 "/>
<path style=" stroke:none;fill-rule:nonzero;fill:url(#radial3);" d="M 12.507812 19.273438 L 14.324219 19.273438 L 14.324219 20.183594 L 12.507812 20.183594 Z M 12.507812 19.273438 "/>
<path style=" stroke:none;fill-rule:nonzero;fill:url(#linear0);" d="M 9.324219 19.046875 L 12.507812 19.046875 L 12.507812 20.183594 L 9.324219 20.183594 Z M 9.324219 19.046875 "/>
<path style="fill-rule:nonzero;fill:url(#linear1);stroke-width:3;stroke-linecap:round;stroke-linejoin:miter;stroke:rgb(20%,20%,20%);stroke-opacity:1;stroke-miterlimit:4;" d="M 253.975747 -168.640791 C 365.056048 -168.640791 455.047454 -78.649384 455.047454 32.430917 C 455.047454 143.511218 365.056048 233.502625 253.975747 233.502625 C 142.986345 233.502625 52.904039 143.511218 52.904039 32.430917 C 52.904039 -78.649384 142.986345 -168.640791 253.975747 -168.640791 Z M 253.975747 -168.640791 " transform="matrix(0.0429729,0,0,0.0429729,0,9.239163)"/>
<path style=" stroke:none;fill-rule:nonzero;fill:rgb(0%,0%,0%);fill-opacity:0.196078;" d="M 10.914062 19.273438 C 6.128906 19.273438 2.273438 15.417969 2.273438 10.632812 C 2.273438 10.605469 2.273438 10.574219 2.273438 10.546875 C 2.320312 15.296875 6.15625 19.105469 10.914062 19.105469 C 15.675781 19.105469 19.511719 15.296875 19.554688 10.546875 C 19.554688 10.574219 19.554688 10.605469 19.554688 10.632812 C 19.554688 15.417969 15.703125 19.273438 10.914062 19.273438 Z M 10.914062 19.273438 "/>
<path style=" stroke:none;fill-rule:nonzero;fill:rgb(100%,100%,100%);fill-opacity:0.392157;" d="M 10.914062 1.992188 C 6.128906 1.992188 2.273438 5.84375 2.273438 10.632812 C 2.273438 10.660156 2.273438 10.6875 2.273438 10.71875 C 2.320312 5.96875 6.15625 2.160156 10.914062 2.160156 C 15.675781 2.160156 19.511719 5.96875 19.554688 10.71875 C 19.554688 10.6875 19.554688 10.660156 19.554688 10.632812 C 19.554688 5.84375 15.703125 1.992188 10.914062 1.992188 Z M 10.914062 1.992188 "/>
<path style=" stroke:none;fill-rule:nonzero;fill:rgb(12.941176%,12.941176%,12.941176%);fill-opacity:1;" d="M 10.914062 1.925781 C 6.09375 1.925781 2.210938 5.808594 2.210938 10.632812 C 2.210938 15.453125 6.09375 19.335938 10.914062 19.335938 C 15.738281 19.335938 19.621094 15.453125 19.621094 10.632812 C 19.621094 5.808594 15.738281 1.925781 10.914062 1.925781 Z M 10.914062 2.054688 C 15.667969 2.054688 19.492188 5.878906 19.492188 10.632812 C 19.492188 15.382812 15.667969 19.207031 10.914062 19.207031 C 6.164062 19.207031 2.339844 15.382812 2.339844 10.632812 C 2.339844 5.878906 6.164062 2.054688 10.914062 2.054688 Z M 10.914062 2.054688 "/>
<path style=" stroke:none;fill-rule:nonzero;fill:url(#linear2);" d="M 10.910156 5.625 C 10.65625 5.628906 10.457031 5.832031 10.460938 6.085938 L 10.460938 10.632812 C 10.460938 10.882812 10.664062 11.085938 10.914062 11.085938 L 14.097656 11.085938 C 14.261719 11.089844 14.414062 11.003906 14.496094 10.859375 C 14.582031 10.71875 14.582031 10.542969 14.496094 10.402344 C 14.414062 10.261719 14.261719 10.175781 14.097656 10.179688 L 11.371094 10.179688 L 11.371094 6.085938 C 11.371094 5.960938 11.324219 5.84375 11.234375 5.757812 C 11.148438 5.667969 11.03125 5.621094 10.910156 5.625 Z M 13.519531 5.910156 C 13.316406 5.917969 13.144531 6.054688 13.09375 6.25 C 13.042969 6.445312 13.128906 6.652344 13.300781 6.753906 C 14.601562 7.554688 15.464844 8.984375 15.464844 10.632812 C 15.464844 13.160156 13.441406 15.179688 10.914062 15.179688 C 8.386719 15.179688 6.367188 13.160156 6.367188 10.632812 C 6.367188 8.984375 7.230469 7.554688 8.527344 6.753906 C 8.703125 6.648438 8.789062 6.441406 8.734375 6.246094 C 8.679688 6.046875 8.503906 5.910156 8.296875 5.910156 C 8.210938 5.910156 8.125 5.933594 8.054688 5.980469 C 6.492188 6.941406 5.457031 8.664062 5.457031 10.632812 C 5.457031 13.648438 7.898438 16.089844 10.914062 16.089844 C 13.929688 16.089844 16.371094 13.648438 16.371094 10.632812 C 16.371094 8.664062 15.335938 6.941406 13.777344 5.980469 C 13.699219 5.933594 13.609375 5.90625 13.519531 5.910156 Z M 13.519531 5.910156 "/>
<path style=" stroke:none;fill-rule:nonzero;fill:rgb(100%,100%,100%);fill-opacity:1;" d="M 10.910156 5.625 C 10.65625 5.628906 10.457031 5.832031 10.460938 6.085938 L 10.460938 6.371094 C 10.457031 6.121094 10.65625 5.914062 10.910156 5.910156 C 11.03125 5.910156 11.148438 5.957031 11.234375 6.042969 C 11.324219 6.132812 11.371094 6.25 11.371094 6.371094 L 11.371094 6.085938 C 11.371094 5.960938 11.324219 5.84375 11.234375 5.757812 C 11.148438 5.667969 11.03125 5.621094 10.910156 5.625 Z M 13.519531 5.910156 C 13.375 5.914062 13.242188 5.988281 13.160156 6.105469 C 13.078125 6.222656 13.058594 6.371094 13.101562 6.507812 C 13.164062 6.328125 13.328125 6.203125 13.519531 6.199219 C 13.609375 6.195312 13.699219 6.21875 13.777344 6.269531 C 15.300781 7.203125 16.320312 8.871094 16.371094 10.777344 C 16.371094 10.730469 16.371094 10.679688 16.371094 10.632812 C 16.371094 8.664062 15.335938 6.941406 13.777344 5.980469 C 13.699219 5.933594 13.609375 5.90625 13.519531 5.910156 Z M 8.296875 5.910156 C 8.210938 5.910156 8.125 5.933594 8.054688 5.980469 C 6.492188 6.941406 5.457031 8.664062 5.457031 10.632812 C 5.457031 10.679688 5.457031 10.730469 5.460938 10.777344 C 5.507812 8.871094 6.53125 7.203125 8.054688 6.269531 C 8.125 6.222656 8.210938 6.199219 8.296875 6.199219 C 8.492188 6.199219 8.664062 6.324219 8.726562 6.507812 C 8.773438 6.371094 8.75 6.21875 8.664062 6.101562 C 8.582031 5.980469 8.445312 5.910156 8.296875 5.910156 Z M 11.371094 10.179688 L 11.371094 10.464844 L 14.097656 10.464844 C 14.296875 10.460938 14.472656 10.589844 14.535156 10.777344 C 14.582031 10.636719 14.558594 10.484375 14.472656 10.363281 C 14.382812 10.246094 14.246094 10.175781 14.097656 10.179688 Z M 6.367188 10.777344 C 6.367188 10.824219 6.367188 10.871094 6.367188 10.917969 C 6.367188 13.449219 8.386719 15.46875 10.914062 15.46875 C 13.441406 15.46875 15.464844 13.449219 15.464844 10.917969 C 15.464844 10.871094 15.464844 10.824219 15.460938 10.777344 C 15.386719 13.234375 13.394531 15.179688 10.914062 15.179688 C 8.433594 15.179688 6.445312 13.234375 6.367188 10.777344 Z M 6.367188 10.777344 "/>
<path style=" stroke:none;fill-rule:nonzero;fill:rgb(0%,0%,0%);fill-opacity:0.235294;" d="M 13.140625 6.589844 C 13.015625 6.804688 13.085938 7.082031 13.300781 7.207031 C 14.539062 7.96875 15.382812 9.304688 15.457031 10.859375 C 15.460938 10.785156 15.464844 10.707031 15.464844 10.632812 C 15.464844 8.984375 14.601562 7.550781 13.300781 6.753906 C 13.234375 6.714844 13.179688 6.65625 13.140625 6.589844 Z M 8.6875 6.589844 C 8.648438 6.660156 8.59375 6.714844 8.527344 6.753906 C 7.230469 7.550781 6.367188 8.984375 6.367188 10.632812 C 6.367188 10.707031 6.367188 10.785156 6.371094 10.859375 C 6.449219 9.304688 7.289062 7.96875 8.527344 7.207031 C 8.742188 7.082031 8.8125 6.804688 8.6875 6.589844 Z M 10.460938 10.632812 L 10.460938 11.085938 C 10.460938 11.335938 10.664062 11.539062 10.914062 11.539062 L 14.097656 11.539062 C 14.261719 11.542969 14.414062 11.457031 14.496094 11.316406 C 14.578125 11.175781 14.582031 11 14.5 10.859375 C 14.417969 11 14.261719 11.085938 14.097656 11.085938 L 10.914062 11.085938 C 10.664062 11.085938 10.460938 10.882812 10.460938 10.632812 Z M 5.464844 10.859375 C 5.460938 10.933594 5.457031 11.011719 5.457031 11.085938 C 5.457031 14.101562 7.898438 16.542969 10.914062 16.542969 C 13.929688 16.542969 16.371094 14.101562 16.371094 11.085938 C 16.371094 11.011719 16.371094 10.933594 16.367188 10.859375 C 16.246094 13.769531 13.855469 16.089844 10.914062 16.089844 C 7.976562 16.089844 5.582031 13.769531 5.464844 10.859375 Z M 5.464844 10.859375 "/>
<path style="fill:none;stroke-width:11.338583;stroke-linecap:round;stroke-linejoin:round;stroke:rgb(12.941176%,12.941176%,12.941176%);stroke-opacity:1;stroke-miterlimit:4;" d="M 959.564785 494.727279 C 937.233345 495.07084 919.711754 512.935991 920.055315 535.267431 L 920.055315 935.171981 C 920.055315 957.159861 937.920466 975.025012 959.908345 975.025012 L 1239.910243 975.025012 C 1254.339789 975.368573 1267.738652 967.810239 1274.953425 955.098497 C 1282.511759 942.730315 1282.511759 927.270087 1274.953425 914.901905 C 1267.738652 902.533723 1254.339789 894.97539 1239.910243 895.318951 L 1000.104937 895.318951 L 1000.104937 535.267431 C 1000.104937 524.273491 995.98221 513.966673 988.080315 506.40834 C 980.521982 498.506446 970.215164 494.383718 959.564785 494.727279 Z M 1189.063273 519.807204 C 1171.198121 520.494325 1156.081454 532.518946 1151.615166 549.696977 C 1147.148878 566.875007 1154.707212 585.083719 1169.823878 594.016295 C 1284.229562 664.44622 1360.156457 790.189404 1360.156457 935.171981 C 1360.156457 1157.455696 1182.19206 1335.076532 959.908345 1335.076532 C 737.624631 1335.076532 560.003795 1157.455696 560.003795 935.171981 C 560.003795 790.189404 635.93069 664.44622 749.992812 594.016295 C 765.45304 584.740159 773.011373 566.531447 768.201525 549.353416 C 763.391676 531.831825 747.931449 519.807204 729.722736 519.807204 C 722.164403 519.807204 714.60607 521.868567 708.421979 525.991295 C 570.997734 610.507205 479.954173 762.017434 479.954173 935.171981 C 479.954173 1200.400773 694.679554 1415.126154 959.908345 1415.126154 C 1225.137137 1415.126154 1439.862518 1200.400773 1439.862518 935.171981 C 1439.862518 762.017434 1348.818956 610.507205 1211.738273 525.991295 C 1204.867061 521.868567 1196.965167 519.463643 1189.063273 519.807204 Z M 1189.063273 519.807204 " transform="matrix(0.0113699,0,0,0.0113699,0,0)"/>
</g>
</svg>
